X: 4117
T: WILD ROSES
R: Strathspey.
%R: strathspey
B: James Kerr "Merry Melodies" v.4 p.14 #117
Z: 2016 John Chambers <jc:trillian.mit.edu>
M: C
L: 1/8
K: G
|:\
d<d B>G E>F G2 | D>GE>G D>GE>G |\
d<d B>G E>F G>A | B>e g/f/e/^d/ e2- eg :|
|:\
d>eg>a b>ag>d | e<g d>g e<g d>B |\
d>eg>a b>ag>d | e>g f/g/a/f/ g2- gd :|

%%sep 1 1 500
%%sep 1 1 500

